X: 36329
T: Sean Bui
R: jig
M: 6/8
K: Gmajor
|:G,B,D EB,D EFG DB,D|G,B,D EB,D E2 F G3|
G,B,D EB,D EFG DB,D|1 BAG AGF E2 F G3:|2 BAG AGF E2 F G2 A||
|:BAG AGF EFG DB,D|BAG AGF E2 AA2 A|
BAG AGF EFG DB,D|1 G,B,D EB,D E2 F G2 A:|2 G,B,D EB,D E2 F G3|

